images/food.svg

<svg width="75" height="71" viewBox="0 0 75 71" fill="none" xmlns="http://www.w3.org/2000/svg">
<path d="M70.5499 47.2H4.7499C2.4499 47.2 0.649902 49.1 0.649902 51.5V55C0.649902 57.4 2.5499 59.3 4.7499 59.3H5.6499V60.4C5.6499 65.9 9.9499 70.5 15.2499 70.5H59.8499C65.1499 70.5 69.4499 66 69.4499 60.4V59.3H70.3499C72.6499 59.3 74.4499 57.4 74.4499 55V51.5C74.6499 49.2 72.7499 47.2 70.5499 47.2ZM66.6499 60.4C66.6499 64.3 63.6499 67.4 59.9499 67.4H15.2499C11.5499 67.4 8.5499 64.2 8.5499 60.4V59.3H66.6499V60.4ZM71.7499 55C71.7499 55.7 71.1499 56.3 70.5499 56.3H4.6499C3.9499 56.3 3.4499 55.7 3.4499 55V51.5C3.4499 50.8 4.0499 50.2 4.6499 50.2H70.4499C71.1499 50.2 71.6499 50.8 71.6499 51.5C71.7499 51.5 71.7499 55 71.7499 55Z" fill="#83B3D3"/>
<path d="M16.2499 38.9L21.6499 43L26.9499 38.9L32.2499 43L37.5499 38.9L42.9499 43L48.2499 38.9L53.5499 43L58.9499 38.9L64.2499 43L70.4499 38.3L68.7499 35.8L64.2499 39.2L58.9499 35.1L53.5499 39.2L48.2499 35.1L42.9499 39.2L37.5499 35.1L32.2499 39.2L26.9499 35.1L21.6499 39.2L16.2499 35.1L10.9499 39.2L6.4499 35.8L4.7499 38.3L10.9499 43L16.2499 38.9Z" fill="#83B3D3"/>
<path d="M8.6499 32H69.4499C69.4499 31.4 69.5499 30.8 69.5499 30.1C69.5499 29.7 69.5499 29.3 69.5499 28.9C68.8499 13.2 54.8499 0.5 37.6499 0.5C20.3499 0.5 6.3499 13.2 5.6499 29C5.6499 29.4 5.6499 29.8 5.6499 30.2C5.6499 30.8 5.6499 31.5 5.7499 32.1H8.6499V32ZM37.6499 3.5C53.2499 3.5 66.0499 14.8 66.6499 29H8.6499C9.2499 14.9 22.0499 3.5 37.6499 3.5Z" fill="#83B3D3"/>
<path d="M37.6499 17.8C38.6992 17.8 39.5499 16.9046 39.5499 15.8C39.5499 14.6954 38.6992 13.8 37.6499 13.8C36.6006 13.8 35.7499 14.6954 35.7499 15.8C35.7499 16.9046 36.6006 17.8 37.6499 17.8Z" fill="#83B3D3"/>
<path d="M29.8499 12.7C30.8992 12.7 31.7499 11.8046 31.7499 10.7C31.7499 9.59543 30.8992 8.7 29.8499 8.7C28.8006 8.7 27.9499 9.59543 27.9499 10.7C27.9499 11.8046 28.8006 12.7 29.8499 12.7Z" fill="#83B3D3"/>
<path d="M45.3499 12.7C46.3992 12.7 47.2499 11.8046 47.2499 10.7C47.2499 9.59543 46.3992 8.7 45.3499 8.7C44.3006 8.7 43.4499 9.59543 43.4499 10.7C43.4499 11.8046 44.3006 12.7 45.3499 12.7Z" fill="#83B3D3"/>
</svg>

<svg width="75" height="71" fill="none" xmlns="http://www.w3.org/2000/svg"><path d="M70.55 47.2H4.75c-2.3 0-4.1 1.9-4.1 4.3V55c0 2.4 1.9 4.3 4.1 4.3h.9v1.1c0 5.5 4.3 10.1 9.6 10.1h44.6c5.3 0 9.6-4.5 9.6-10.1v-1.1h.9c2.3 0 4.1-1.9 4.1-4.3v-3.5a4 4 0 0 0-3.9-4.3Zm-3.9 13.2c0 3.9-3 7-6.7 7h-44.7c-3.7 0-6.7-3.2-6.7-7v-1.1h58.1v1.1Zm5.1-5.4c0 .7-.6 1.3-1.2 1.3H4.65c-.7 0-1.2-.6-1.2-1.3v-3.5c0-.7.6-1.3 1.2-1.3h65.8c.7 0 1.2.6 1.2 1.3.1 0 .1 3.5.1 3.5ZM16.25 38.9l5.4 4.1 5.3-4.1 5.3 4.1 5.3-4.1 5.4 4.1 5.3-4.1 5.3 4.1 5.4-4.1 5.3 4.1 6.2-4.7-1.7-2.5-4.5 3.4-5.3-4.1-5.4 4.1-5.3-4.1-5.3 4.1-5.4-4.1-5.3 4.1-5.3-4.1-5.3 4.1-5.4-4.1-5.3 4.1-4.5-3.4-1.7 2.5 6.2 4.7 5.3-4.1ZM8.65 32h60.8c0-.6.1-1.2.1-1.9v-1.2C68.85 13.2 54.85.5 37.65.5c-17.3 0-31.3 12.7-32 28.5v1.2c0 .6 0 1.3.1 1.9h2.9V32Zm29-28.5c15.6 0 28.4 11.3 29 25.5h-58c.6-14.1 13.4-25.5 29-25.5Z" fill="#83B3D3"/><path d="M37.65 17.8c1.05 0 1.9-.9 1.9-2s-.85-2-1.9-2c-1.05 0-1.9.9-1.9 2s.85 2 1.9 2ZM29.85 12.7c1.05 0 1.9-.9 1.9-2s-.85-2-1.9-2c-1.05 0-1.9.9-1.9 2s.85 2 1.9 2ZM45.35 12.7c1.05 0 1.9-.9 1.9-2s-.85-2-1.9-2c-1.05 0-1.9.9-1.9 2s.85 2 1.9 2Z" fill="#83B3D3"/></svg>
